assets/svg/1F4C9.svg

<svg xmlns="http://www.w3.org/2000/svg" viewBox="0 0 64 64" enable-background="new 0 0 64 64"><path fill="#e6e7e8" d="m63.917 57.17c0 3.809-3.082 6.895-6.89 6.895h-50.14c-3.801 0-6.887-3.086-6.887-6.895v-50.13c0-3.805 3.086-6.891 6.887-6.891h50.14c3.808 0 6.89 3.086 6.89 6.891v50.13"/><path fill="#cccbcb" d="m0 48.811v8.355c0 3.809 3.086 6.895 6.887 6.895h50.14c3.808 0 6.89-3.086 6.89-6.895v-50.13c-10.914 39.647-50.15 42.16-63.917 41.78"/><path fill="#1f74ad" d="m12.143 10.768c3.699 5.179 7.399 10.36 11.1 15.54-1.302-.026-2.605-.049-3.911-.075 5.179-5.179 10.358-10.36 15.538-15.54 1.272-1.274 3.402-1.042 4.18.595 6.657 14.06 13.319 28.12 19.979 42.18 1.207 2.551-3.56 4.137-4.776 1.575-6.658-14.06-13.317-28.12-19.977-42.18 1.394.198 2.786.396 4.18.595-5.18 5.179-10.358 10.36-15.538 15.54-1.017 1.017-3 1.198-3.915-.075-3.697-5.179-7.398-10.36-11.1-15.54-1.722-2.412 2.626-4.876 4.242-2.614l0 0"/></svg>

<?xml version="1.0" encoding="utf-8"?>
<!-- Generator: Adobe Illustrator 16.0.0, SVG Export Plug-In . SVG Version: 6.00 Build 0)  -->
<!DOCTYPE svg PUBLIC "-//W3C//DTD SVG 1.1//EN" "http://www.w3.org/Graphics/SVG/1.1/DTD/svg11.dtd">
<svg version="1.1" id="Layer_1" xmlns="http://www.w3.org/2000/svg" xmlns:xlink="http://www.w3.org/1999/xlink" x="0px" y="0px"
	 width="64px" height="64px" viewBox="0 0 64 64" enable-background="new 0 0 64 64" xml:space="preserve">
<g>
	<g>
		<path fill="#E6E7E8" d="M63.917,57.166c0,3.809-3.082,6.895-6.89,6.895H6.887C3.086,64.061,0,60.975,0,57.166V7.033
			c0-3.805,3.086-6.891,6.887-6.891h50.14c3.808,0,6.89,3.086,6.89,6.891V57.166z"/>
		<path fill="#CCCBCB" d="M0,48.811v8.355c0,3.809,3.086,6.895,6.887,6.895h50.14c3.808,0,6.89-3.086,6.89-6.895V7.031
			C53.003,46.678,13.767,49.191,0,48.811z"/>
	</g>
	<g>
		<path fill="#1F74AD" d="M12.143,10.768c3.699,5.179,7.399,10.36,11.099,15.54c-1.302-0.026-2.605-0.049-3.911-0.075
			c5.179-5.179,10.358-10.36,15.538-15.54c1.272-1.274,3.402-1.042,4.18,0.595c6.657,14.059,13.319,28.119,19.979,42.177
			c1.207,2.551-3.56,4.137-4.776,1.575c-6.658-14.06-13.317-28.119-19.977-42.178c1.394,0.198,2.786,0.396,4.18,0.595
			c-5.18,5.179-10.358,10.36-15.538,15.54c-1.017,1.017-3.004,1.198-3.915-0.075c-3.697-5.179-7.398-10.36-11.101-15.54
			C6.179,10.97,10.527,8.506,12.143,10.768L12.143,10.768z"/>
	</g>
</g>
</svg>
